Newaita/actions/scalable/debug-step-instruction.svg

<?xml version="1.0" encoding="UTF-8"?>
<svg xmlns="http://www.w3.org/2000/svg" xmlns:xlink="http://www.w3.org/1999/xlink" width="512pt" height="512pt" viewBox="0 0 512 512" version="1.1">
<g id="surface1">
<path style=" stroke:none;fill-rule:nonzero;fill:rgb(25.882354%,25.882354%,25.882354%);fill-opacity:1;" d="M 201.101562 152.179688 C 171.785156 152.179688 148.179688 171.0625 148.179688 194.519531 L 148.179688 247.441406 L 95.257812 279.191406 L 148.179688 310.945312 L 148.179688 363.867188 C 148.179688 387.324219 171.785156 406.207031 201.101562 406.207031 C 204.730469 406.207031 208.269531 405.914062 211.6875 405.363281 L 211.6875 374.453125 C 199.960938 374.453125 179.933594 365.011719 179.933594 353.285156 L 179.933594 291.894531 L 158.765625 279.191406 L 179.933594 266.492188 L 179.933594 205.101562 C 179.933594 193.375 199.960938 183.933594 211.6875 183.933594 L 211.6875 153.023438 C 208.269531 152.472656 204.730469 152.179688 201.101562 152.179688 Z M 201.101562 152.179688 "/>
<path style=" stroke:none;fill-rule:nonzero;fill:rgb(25.882354%,25.882354%,25.882354%);fill-opacity:1;" d="M 306.945312 152.179688 C 336.265625 152.179688 359.867188 171.0625 359.867188 194.519531 L 359.867188 247.441406 L 412.789062 279.191406 L 359.867188 310.945312 L 359.867188 363.867188 C 359.867188 387.324219 336.265625 406.207031 306.945312 406.207031 C 303.320312 406.207031 299.78125 405.914062 296.363281 405.363281 L 296.363281 374.453125 C 308.089844 374.453125 328.628906 365 328.113281 353.285156 L 328.113281 291.894531 L 349.285156 279.191406 L 328.113281 266.492188 L 328.113281 205.101562 C 328.113281 193.375 308.089844 183.933594 296.363281 183.933594 L 296.363281 153.023438 C 299.78125 152.472656 303.320312 152.179688 306.945312 152.179688 Z M 306.945312 152.179688 "/>
<path style=" stroke:none;fill-rule:nonzero;fill:rgb(25.882354%,25.882354%,25.882354%);fill-opacity:1;" d="M 63.507812 25.167969 C 45.914062 25.167969 31.753906 39.332031 31.753906 56.921875 L 31.753906 459.125 C 31.753906 476.71875 45.914062 490.878906 63.507812 490.878906 L 444.542969 490.878906 C 462.132812 490.878906 476.296875 476.71875 476.296875 459.125 L 476.296875 152.179688 L 444.542969 152.179688 L 444.542969 437.957031 C 444.542969 449.6875 435.101562 459.125 423.375 459.125 L 84.675781 459.125 C 72.949219 459.125 63.507812 449.6875 63.507812 437.957031 L 63.507812 141.597656 C 63.507812 129.871094 72.949219 120.429688 84.675781 120.429688 L 306.945312 120.429688 L 306.945312 25.167969 Z M 63.507812 25.167969 "/>
<path style=" stroke:none;fill-rule:evenodd;fill:rgb(100%,43.921569%,26.274511%);fill-opacity:1;" d="M 477.585938 35.753906 C 477.582031 29.910156 472.847656 25.179688 467.011719 25.175781 L 340 25.175781 C 331.972656 25.179688 326.871094 33.777344 330.714844 40.828125 L 394.222656 115.136719 C 400.851562 123.074219 406.140625 123.074219 412.789062 115.136719 L 476.296875 40.828125 C 477.144531 39.269531 477.585938 37.527344 477.585938 35.753906 Z M 477.585938 35.753906 "/>
<path style=" stroke:none;fill-rule:nonzero;fill:rgb(100%,43.921569%,26.274511%);fill-opacity:1;" d="M 254.023438 236.855469 C 265.714844 236.855469 275.191406 246.332031 275.191406 258.023438 L 275.191406 385.035156 C 275.191406 396.726562 265.714844 406.207031 254.023438 406.207031 C 242.332031 406.207031 232.855469 396.726562 232.855469 385.035156 L 232.855469 258.023438 C 232.855469 246.332031 242.332031 236.855469 254.023438 236.855469 Z M 254.023438 236.855469 "/>
<path style=" stroke:none;fill-rule:nonzero;fill:rgb(100%,43.921569%,26.274511%);fill-opacity:1;" d="M 254.023438 152.179688 C 265.714844 152.179688 275.191406 161.660156 275.191406 173.351562 C 275.191406 185.042969 265.714844 194.519531 254.023438 194.519531 C 242.332031 194.519531 232.855469 185.042969 232.855469 173.351562 C 232.855469 161.660156 242.332031 152.179688 254.023438 152.179688 Z M 254.023438 152.179688 "/>
</g>
</svg>

<svg xmlns="http://www.w3.org/2000/svg" width="512pt" height="512pt" viewBox="0 0 512 512"><path d="M201.102 152.18c-29.317 0-52.922 18.882-52.922 42.34v52.921l-52.922 31.75 52.922 31.754v52.922c0 23.457 23.605 42.34 52.922 42.34 3.628 0 7.168-.293 10.585-.844v-30.91c-11.726 0-31.753-9.441-31.753-21.168v-61.39l-21.168-12.704 21.168-12.699v-61.39c0-11.727 20.027-21.168 31.754-21.168v-30.91a66.536 66.536 0 0 0-10.586-.844zm0 0M306.945 152.18c29.32 0 52.922 18.882 52.922 42.34v52.921l52.922 31.75-52.922 31.754v52.922c0 23.457-23.601 42.34-52.922 42.34-3.625 0-7.164-.293-10.582-.844v-30.91c11.727 0 32.266-9.453 31.75-21.168v-61.39l21.172-12.704-21.172-12.699v-61.39c0-11.727-20.023-21.168-31.75-21.168v-30.91a66.524 66.524 0 0 1 10.582-.844zm0 0" fill="#424242"/><path d="M63.508 25.168c-17.594 0-31.754 14.164-31.754 31.754v402.203a31.682 31.682 0 0 0 31.754 31.754h381.035c17.59 0 31.754-14.16 31.754-31.754V152.18h-31.754v285.777a21.12 21.12 0 0 1-21.168 21.168h-338.7a21.12 21.12 0 0 1-21.167-21.168v-296.36a21.122 21.122 0 0 1 21.168-21.167h222.27V25.168zm0 0" fill="#424242"/><path d="M477.586 35.754c-.004-5.844-4.738-10.574-10.574-10.578H340c-8.027.004-13.129 8.601-9.285 15.652l63.508 74.309c6.629 7.937 11.918 7.937 18.566 0l63.508-74.309c.848-1.558 1.289-3.3 1.289-5.074zm0 0" fill-rule="evenodd" fill="#ff7043"/><path d="M254.023 236.855c11.692 0 21.168 9.477 21.168 21.168v127.012c0 11.692-9.476 21.172-21.168 21.172-11.691 0-21.168-9.48-21.168-21.172V258.023c0-11.691 9.477-21.168 21.168-21.168zm0 0M254.023 152.18c11.692 0 21.168 9.48 21.168 21.172 0 11.691-9.476 21.168-21.168 21.168-11.691 0-21.168-9.477-21.168-21.168 0-11.692 9.477-21.172 21.168-21.172zm0 0" fill="#ff7043"/></svg>
